img/svg/promocode.svg

<svg width="48" height="48" viewBox="0 0 48 48" fill="none" xmlns="http://www.w3.org/2000/svg">
<mask id="mask0_269_4037" style="mask-type:alpha" maskUnits="userSpaceOnUse" x="0" y="0" width="48" height="48">
<circle cx="24" cy="24" r="24" fill="black"/>
</mask>
<g mask="url(#mask0_269_4037)">
<rect x="9.5" y="10.5" width="29" height="55" rx="1.5" fill="#56323F" stroke="white"/>
<rect x="12.5" y="14.5" width="23" height="46" fill="white" stroke="white"/>
<line x1="21.5" y1="12.5" x2="26.5" y2="12.5" stroke="white" stroke-linecap="round"/>
</g>
<circle cx="24" cy="24" r="23.5" stroke="white"/>
<path d="M22 35.5H15.5V22.5H32.5V35.5H26H25.7929L25.6464 35.6464L24 37.2929L22.3536 35.6464L22.2071 35.5H22Z" fill="white" stroke="#56323F"/>
<path d="M18.9683 29.7129L18.4277 28.8164L17.8916 29.7129L17.5752 29.4888L18.2036 28.6802L17.2588 28.4121L17.395 28.0957L18.2959 28.4121L18.2476 27.3311H18.6079L18.564 28.4121L19.4648 28.0957L19.6011 28.4121L18.6562 28.6802L19.2847 29.4888L18.9683 29.7129ZM21.7544 29.7129L21.2139 28.8164L20.6777 29.7129L20.3613 29.4888L20.9897 28.6802L20.0449 28.4121L20.1812 28.0957L21.082 28.4121L21.0337 27.3311H21.394L21.3501 28.4121L22.251 28.0957L22.3872 28.4121L21.4424 28.6802L22.0708 29.4888L21.7544 29.7129ZM24.5405 29.7129L24 28.8164L23.4639 29.7129L23.1475 29.4888L23.7759 28.6802L22.8311 28.4121L22.9673 28.0957L23.8682 28.4121L23.8198 27.3311H24.1802L24.1362 28.4121L25.0371 28.0957L25.1733 28.4121L24.2285 28.6802L24.8569 29.4888L24.5405 29.7129ZM27.3267 29.7129L26.7861 28.8164L26.25 29.7129L25.9336 29.4888L26.562 28.6802L25.6172 28.4121L25.7534 28.0957L26.6543 28.4121L26.606 27.3311H26.9663L26.9224 28.4121L27.8232 28.0957L27.9595 28.4121L27.0146 28.6802L27.6431 29.4888L27.3267 29.7129ZM30.1128 29.7129L29.5723 28.8164L29.0361 29.7129L28.7197 29.4888L29.3481 28.6802L28.4033 28.4121L28.5396 28.0957L29.4404 28.4121L29.3921 27.3311H29.7524L29.7085 28.4121L30.6094 28.0957L30.7456 28.4121L29.8008 28.6802L30.4292 29.4888L30.1128 29.7129Z" fill="#56323F"/>
</svg>

<svg width="48" height="48" viewBox="0 0 48 48" fill="none" xmlns="http://www.w3.org/2000/svg"><mask id="mask0_269_4037" style="mask-type:alpha" maskUnits="userSpaceOnUse" x="0" y="0" width="48" height="48"><circle cx="24" cy="24" r="24" fill="#000"/></mask><g mask="url(#mask0_269_4037)" stroke="#fff"><rect x="9.5" y="10.5" width="29" height="55" rx="1.5" fill="#56323F"/><path fill="#fff" d="M12.5 14.5h23v46h-23z"/><path stroke-linecap="round" d="M21.5 12.5h5"/></g><circle cx="24" cy="24" r="23.5" stroke="#fff"/><path d="M22 35.5h-6.5v-13h17v13h-6.707l-.147.146L24 37.293l-1.646-1.647-.147-.146H22z" fill="#fff" stroke="#56323F"/><path d="M18.968 29.713l-.54-.897-.536.897-.317-.224.629-.809-.945-.268.136-.316.9.316-.047-1.08h.36l-.044 1.08.9-.316.137.316-.945.268.629.809-.317.224zm2.786 0l-.54-.897-.536.897-.317-.224.629-.809-.945-.268.136-.316.901.316-.048-1.08h.36l-.044 1.08.901-.316.136.316-.945.268.629.809-.317.224zm2.787 0L24 28.816l-.536.897-.316-.224.628-.809-.945-.268.136-.316.901.316-.048-1.08h.36l-.044 1.08.901-.316.136.316-.944.268.628.809-.316.224zm2.786 0l-.54-.897-.537.897-.316-.224.628-.809-.945-.268.136-.316.901.316-.048-1.08h.36l-.044 1.08.901-.316.136.316-.944.268.628.809-.316.224zm2.786 0l-.54-.897-.537.897-.316-.224.628-.809-.945-.268.137-.316.9.316-.048-1.08h.36l-.043 1.08.9-.316.137.316-.945.268.628.809-.316.224z" fill="#56323F"/></svg>
